assets/search_close.svg

<?xml version="1.0" encoding="utf-8"?><!DOCTYPE svg PUBLIC "-//W3C//DTD SVG 1.1//EN" "http://www.w3.org/Graphics/SVG/1.1/DTD/svg11.dtd"><svg version="1.1" baseProfile="full" xmlns="http://www.w3.org/2000/svg" xmlns:xlink="http://www.w3.org/1999/xlink" xmlns:ev="http://www.w3.org/2001/xml-events"   height="23px"   width="23px" ><path opacity="0.502" fill="rgb( 27, 33, 36 )" d="M13.834,11.4200000000001 C13.834,11.4200000000001 22.172,19.758 22.172,19.758 C22.839,20.425 22.839,21.5050000000001 22.172,22.172 C21.506,22.838 20.425,22.8389999999999 19.758,22.172 C19.758,22.172 11.42,13.8340000000001 11.42,13.8340000000001 C11.42,13.8340000000001 3.08199999999999,22.172 3.08199999999999,22.172 C2.41499999999996,22.8389999999999 1.334,22.838 0.66799999999995,22.172 C0.00099999999998,21.5050000000001 0,20.425 0.66799999999995,19.758 C0.66799999999995,19.758 9.00599999999997,11.4200000000001 9.00599999999997,11.4200000000001 C9.00599999999997,11.4200000000001 0.66799999999995,3.08200000000011 0.66799999999995,3.08200000000011 C0.00099999999998,2.41499999999996 0.00099999999998,1.33400000000006 0.66799999999995,0.66800000000012 C1.334,0.00099999999998 2.41499999999996,0 3.08199999999999,0.66800000000012 C3.08199999999999,0.66800000000012 11.42,9.00500000000011 11.42,9.00500000000011 C11.42,9.00500000000011 19.758,0.66800000000012 19.758,0.66800000000012 C20.425,0 21.505,0.00099999999998 22.172,0.66800000000012 C22.838,1.33400000000006 22.839,2.41499999999996 22.172,3.08200000000011 C22.172,3.08200000000011 13.834,11.4200000000001 13.834,11.4200000000001 Z "/></svg>

<svg baseProfile="full" xmlns="http://www.w3.org/2000/svg" height="23" width="23"><path opacity=".502" fill="rgb( 27, 33, 36 )" d="M13.834 11.42l8.338 8.338c.667.667.667 1.747 0 2.414-.666.666-1.747.667-2.414 0l-8.338-8.338-8.338 8.338c-.667.667-1.748.666-2.414 0-.667-.667-.668-1.747 0-2.414l8.338-8.338-8.338-8.338c-.667-.667-.667-1.748 0-2.414.666-.667 1.747-.668 2.414 0l8.338 8.337 8.338-8.337c.667-.668 1.747-.667 2.414 0 .666.666.667 1.747 0 2.414l-8.338 8.338z"/></svg>
